X:1
T:Title
%%score { ( 1 4 ) | ( 2 3 ) }
L:1/8
M:4/4
K:Bb
V:1 treble nm="Grand Piano"
V:4 treble 
V:2 bass 
V:3 bass 
V:1
 z4 z2[Q:1/4=100] [B,D]>[CE] | [DF]2 [B,D]>[CE] [DF]2 [Fd]>[Fc] | [GB]4 G2 G2 | %3
 F2 [=Ec]>[Ec] [Fc]2 [Ec]>[Ed] | [Fc]6 [B,D]>[CE] | [DF]2 [B,D]>[CE] [DF]2 [Fd]>[Fc] | %6
[M:3/4] [GB]4 G2 |[M:1/4] G>G |[M:4/4] F2 B>B A2 G>A |[M:3/4] [B,DB]6 |[M:1/4] c>d |[M:4/4] c6 z2 | %12
 d6 z2 | G2 G>G [Ec]2 [=Ec]>[EB] | [FA]6 F2 | [Fd]2 [Fd]>[Fd] [Fd]2 [Fc]>[FB] | [GB]4 G2 G2 | %17
 F2 B>B A2 G>A |[M:3/4] [DB]6 |] %19
V:2
 z4 z2 [B,,F,]>[B,,F,] | [B,,F,]2 [B,,F,]>[B,,B,] [B,,B,]2 [B,,B,]>[D,B,] | %2
 [E,B,]4 [E,B,E]2 [E,B,E]2 | [F,B,D]2 [C,B,]>[C,B,] [C,A,]2 [C,B,]>[C,B,] | [F,A,]6 [B,,F,]2 | %5
 [B,,F,]2 [B,,F,]>[B,,B,] [B,,B,]2 [B,,B,]>[D,B,] |[M:3/4] [E,B,]4 [E,B,E]2 |[M:1/4] E>E | %8
[M:4/4] [F,B,D]2 [F,B,D]>[F,B,D] [F,CF]2 [F,CE]>[F,CE] |[M:3/4] B,,6 |[M:1/4][K:treble] F>F | %11
[M:4/4] E6[K:bass] z2 | F6 [D,B,]>[D,B,] | [E,B,E]2 [E,G,E]>[E,G,E] [C,G,]2 [C,G,]>[C,G,] | %14
 F,2 F,>F, F,E,[D,B,]C, | [B,,B,]2 [B,,B,]>[B,,B,] [B,,B,]2 [C,A,]>[D,B,] | %16
 [E,B,]4 [E,B,E]2 [E,B,E]2 | [F,B,D]2 [F,B,D]>[F,B,D] [F,CF]2 [F,CE]>[F,CE] |[M:3/4] [B,,B,]6 |] %19
V:3
 x8 | x8 | x8 | x8 | x8 | x8 |[M:3/4] x6 |[M:1/4] [E,B,]2 |[M:4/4] x8 |[M:3/4] x6 | %10
[M:1/4][K:treble] x2 |[M:4/4] z2[K:bass] F,>F, F,2 D>E | x8 | x8 | x8 | x8 | x8 | x8 |[M:3/4] x6 |] %19
V:4
 x8 | x8 | x8 | x8 | x8 | x8 |[M:3/4] x6 |[M:1/4] x2 |[M:4/4] x8 |[M:3/4] x6 |[M:1/4] x2 | %11
[M:4/4] z2 A,>A, A,2 B>c | z2 B,>B, B,2 F>F | x8 | z2 C>C C2 z A, | x8 | x8 | x8 |[M:3/4] x6 |] %19

